X:748
T:Da Galley Watch
C:Joe Buchanan's Scottish Tome - Page 186.5
I:186 5
Z:Carl Allison
R:Shetland Reel
L:1/8
M:4/4
K:D
ue | vdu(f a)fd(f | e2) ce gece | f2 du(f a)fdu(f | eg)fe vfu(d A2) :|
v(B | A)(GFG [DA]2) [DA]vB | AGFuD [EA]2 [EA]2 | DEFG A(G [FA]) | A(gfe) vfud- d2 :|
